X: 14
T:Shepherds' Hey, Bucknell (RD)
M:4/4
L:1/8
A:Bucknell
P:A(AB)4
K:G
P:A
z|B>de>B d2d2|B>de>B A4|c2(3BcB A2e2|d2D2G3||
P:B
A|B2e2   d4  |B2d2   A4|c2(3BcB A2e2|d2D2G3||
